X:15
T:Steer her up and had her gaan
Z:Jack Campin <http://www.campin.me.uk/>
S:Aird's Airs v1 (NLS Inglis.33) #118
M:4/4
L:1/8
Q:1/2=112 "Brisk"
K:D
 (fe)|d2d2     f3e|defg a2  AG | F2  A2   A2 (GF)|E2E2 {B}c3e|
      d2d2     f3e|defg a2 (ag)|(ba)(gf) (ed)(ec)|d4      D2:|
(Tfe)|d2A2     F3A|dAGA F2(TED)| E2 =c4       e=F|G=FED  [E2C2]
 Tfe |d2A2 {G}TF3E|DEFG A2  gf | ef``gf   ec``Ac |d4      D2:|
